assets/Potable water/Flat/potable_water_flat.svg

<svg width="32" height="32" viewBox="0 0 32 32" fill="none" xmlns="http://www.w3.org/2000/svg">
<path d="M2 6C2 3.79086 3.79086 2 6 2H26C28.2091 2 30 3.79086 30 6V26C30 28.2091 28.2091 30 26 30H6C3.79086 30 2 28.2091 2 26V6Z" fill="#00A6ED"/>
<path d="M17 6C17 5.44772 17.4477 5 18 5H22C22.5523 5 23 5.44772 23 6C23 6.55228 22.5523 7 22 7H21V8H25C25.5523 8 26 8.44772 26 9V11C26 11.5523 25.5523 12 25 12H17V12.0311C15.8589 12.2627 15 13.2716 15 14.4811C15 14.7572 14.7761 14.9811 14.5 14.9811H11.5C11.2238 14.9811 11 14.7572 11 14.4811C11 11.0594 13.6437 8.25531 17 8H19V7H18C17.4477 7 17 6.55228 17 6Z" fill="white"/>
<path d="M7.31641 17.1002L9.7736 25.2906C9.9005 25.7136 10.2898 26.0032 10.7314 26.0032H15.2293C15.6702 26.0032 16.0591 25.7144 16.1866 25.2923L18.6652 17.0851C18.829 16.5426 18.4229 15.9958 17.8562 15.9957C17.4871 15.9957 17.1607 16.2353 17.05 16.5875L16.0819 19.6686C16.0164 19.877 15.8233 20.0187 15.6049 20.0187H10.359C10.1384 20.0187 9.94385 19.8742 9.88023 19.6629L8.95953 16.6062C8.85037 16.2438 8.5166 15.9958 8.1381 15.9958C7.56344 15.9958 7.15127 16.5497 7.31641 17.1002Z" fill="white"/>
</svg>

<svg xmlns="http://www.w3.org/2000/svg" width="32" height="32" fill="none"><path fill="#00A6ED" d="M2 6a4 4 0 0 1 4-4h20a4 4 0 0 1 4 4v20a4 4 0 0 1-4 4H6a4 4 0 0 1-4-4V6Z"/><path fill="#fff" d="M17 6a1 1 0 0 1 1-1h4a1 1 0 1 1 0 2h-1v1h4a1 1 0 0 1 1 1v2a1 1 0 0 1-1 1h-8v.031a2.5 2.5 0 0 0-2 2.45.5.5 0 0 1-.5.5h-3a.5.5 0 0 1-.5-.5A6.5 6.5 0 0 1 17 8h2V7h-1a1 1 0 0 1-1-1ZM7.316 17.1l2.458 8.19a1 1 0 0 0 .957.713h4.498a1 1 0 0 0 .958-.71l2.478-8.208a.845.845 0 0 0-1.615-.498l-.968 3.082a.5.5 0 0 1-.477.35h-5.246a.5.5 0 0 1-.479-.356l-.92-3.057a.858.858 0 0 0-1.644.494Z"/></svg>
